Arcticons/scalable/apps/radio.svg

<svg viewBox="0 0 48 48" xmlns="http://www.w3.org/2000/svg">
 <defs>
  <style>.a{fill:none;stroke:#fff;stroke-linecap:round;stroke-linejoin:round;}</style>
 </defs>
 <path class="a" d="m6.27 9.47a1.77 1.77 0 0 0-1.77 1.78v24.82a1.77 1.77 0 0 0 1.77 1.77h35.46a1.78 1.78 0 0 0 1.77-1.77v-24.82a1.78 1.78 0 0 0-1.77-1.78zm12.41 7a1.77 1.77 0 0 1 1.77 1.77 1.77 1.77 0 1 1-1.77-1.77zm5.32 0a1.77 1.77 0 0 1 1.77 1.77 1.77 1.77 0 1 1-1.77-1.72zm5.32 0a1.77 1.77 0 0 1 1.77 1.77 1.77 1.77 0 1 1-1.77-1.77zm5.32 0a1.77 1.77 0 0 1 1.77 1.77 1.78 1.78 0 1 1-1.77-1.77zm-16 5.32a1.77 1.77 0 1 1-1.77 1.77 1.77 1.77 0 0 1 1.81-1.72zm5.32 0a1.77 1.77 0 1 1-1.77 1.77 1.77 1.77 0 0 1 1.81-1.72zm5.32 0a1.77 1.77 0 1 1-1.77 1.77 1.77 1.77 0 0 1 1.81-1.72zm5.32 0a1.77 1.77 0 1 1-1.78 1.77 1.77 1.77 0 0 1 1.82-1.72zm-16 5.32a1.77 1.77 0 1 1-1.77 1.77 1.77 1.77 0 0 1 1.85-1.72zm5.32 0a1.77 1.77 0 1 1-1.77 1.77 1.77 1.77 0 0 1 1.85-1.72zm5.32 0a1.77 1.77 0 1 1-1.77 1.77 1.77 1.77 0 0 1 1.85-1.72zm5.32 0a1.77 1.77 0 1 1-1.78 1.77 1.77 1.77 0 0 1 1.86-1.72z"/>
 <line class="a" x1="24" x2="13.08" y1="5.39" y2="9.47"/>
</svg>

<svg xmlns="http://www.w3.org/2000/svg" viewBox="0 0 48 48"><defs><style>.a{fill:none;stroke:#fff;stroke-linecap:round;stroke-linejoin:round;}</style></defs><path class="a" d="M6.27,9.47A1.77,1.77,0,0,0,4.5,11.25V36.07a1.77,1.77,0,0,0,1.77,1.77H41.73a1.78,1.78,0,0,0,1.77-1.77V11.25a1.78,1.78,0,0,0-1.77-1.78Zm12.41,7a1.77,1.77,0,0,1,1.77,1.77h0a1.77,1.77,0,1,1-1.77-1.77Zm5.32,0a1.77,1.77,0,0,1,1.77,1.77h0A1.77,1.77,0,1,1,24,16.52Zm5.32,0a1.77,1.77,0,0,1,1.77,1.77h0a1.77,1.77,0,1,1-1.77-1.77Zm5.32,0a1.77,1.77,0,0,1,1.77,1.77h0a1.78,1.78,0,1,1-1.77-1.77Zm-16,5.32a1.77,1.77,0,1,1-1.77,1.77A1.77,1.77,0,0,1,18.68,21.84Zm5.32,0a1.77,1.77,0,1,1-1.77,1.77A1.77,1.77,0,0,1,24,21.84Zm5.32,0a1.77,1.77,0,1,1-1.77,1.77A1.77,1.77,0,0,1,29.32,21.84Zm5.32,0a1.77,1.77,0,1,1-1.78,1.77A1.77,1.77,0,0,1,34.64,21.84Zm-16,5.32a1.77,1.77,0,1,1-1.77,1.77A1.77,1.77,0,0,1,18.68,27.16Zm5.32,0a1.77,1.77,0,1,1-1.77,1.77A1.77,1.77,0,0,1,24,27.16Zm5.32,0a1.77,1.77,0,1,1-1.77,1.77A1.77,1.77,0,0,1,29.32,27.16Zm5.32,0a1.77,1.77,0,1,1-1.78,1.77A1.77,1.77,0,0,1,34.64,27.16Z"/><line class="a" x1="24" y1="5.39" x2="13.08" y2="9.47"/></svg>
